packages/icons/src/SVG/tear-out.svg

<svg width="12" height="12" viewBox="0 0 12 12" >
<path d="M0 12L12 12L12 6H11L11 11L1 11L1 1L6 1V5.24536e-07L1.04907e-06 0L0 12Z" />
<path d="M7.05026 6L5.9896 4.93934L9.46447 1.46447L8 6.99382e-07L12 1.04907e-06V4L10.5251 2.52513L7.05026 6Z" />
</svg>

<!-- Generated by IcoMoon.io -->
<svg version="1.1" xmlns="http://www.w3.org/2000/svg" width="12" height="12" viewBox="0 0 12 12">
<title>tear-out</title>
<path d="M0 12h12v-6h-1v5h-10v-10h5v-1h-6v12z"></path>
<path d="M7.55 5.5l-1.061-1.061 2.975-2.975-1.464-1.464h4v4l-1.475-1.475-2.975 2.975z"></path>
</svg>
